icons/mix.svg

<svg xmlns="http://www.w3.org/2000/svg" width="16" height="16" fill="none"><path fill="#C268F5" fill-rule="evenodd" d="m2 8 3-5h6l3 5-3 5H5L2 8Zm3 0 1.5-2.5h3L11 8l-1.5 2.5h-3L5 8Z" clip-rule="evenodd"/><path fill="#D892FF" d="m11 3 3 5h-3L9.5 5.5 11 3Z"/><path fill="#A349D6" d="m14 8-3 5H5L2 8h3l1.5 2.5h3L11 8h3Z"/><path fill="#862EB8" d="M5 13 2 8h3l1.5 2.5L5 13Z"/></svg>

<svg width="16" height="16" viewBox="0 0 16 16" fill="none" xmlns="http://www.w3.org/2000/svg">
<path fill-rule="evenodd" clip-rule="evenodd" d="M2 8L5 3H11L14 8L11 13H5L2 8ZM5 8L6.5 5.5L9.5 5.5L11 8L9.5 10.5H6.5L5 8Z" fill="#C268F5"/>
<path d="M11 3L14 8H11L9.5 5.5L11 3Z" fill="#D892FF"/>
<path d="M14 8L11 13H5L2 8H5L6.5 10.5H9.5L11 8H14Z" fill="#A349D6"/>
<path d="M5 13L2 8H5L6.5 10.5L5 13Z" fill="#862EB8"/>
</svg>
